src/assets/icons/visa_card_logo.svg

<svg width="48" height="48" viewBox="0 0 48 48" fill="none" xmlns="http://www.w3.org/2000/svg">
<path fill-rule="evenodd" clip-rule="evenodd" d="M21.1992 31.0452H17.7969L19.9249 18.2305H23.3271L21.1992 31.0452Z" fill="#0742A6"/>
<path fill-rule="evenodd" clip-rule="evenodd" d="M33.5342 18.5456C32.8631 18.2863 31.7987 18 30.4826 18C27.1227 18 24.7566 19.7449 24.7421 22.2396C24.7142 24.0801 26.4361 25.1024 27.724 25.7161C29.0403 26.3433 29.4878 26.7526 29.4878 27.3116C29.4744 28.1701 28.4241 28.5658 27.4445 28.5658C26.0862 28.5658 25.3583 28.3618 24.2522 27.8841L23.8042 27.6794L23.3281 30.556C24.1261 30.9101 25.5963 31.2243 27.1227 31.238C30.6926 31.238 33.0168 29.5201 33.0443 26.8616C33.0579 25.4029 32.1487 24.2851 30.1884 23.3717C28.9984 22.7853 28.2697 22.39 28.2697 21.79C28.2836 21.2446 28.8861 20.686 30.2294 20.686C31.3354 20.6587 32.1481 20.9176 32.7638 21.1767L33.0715 21.3128L33.5342 18.5456Z" fill="#0742A6"/>
<path fill-rule="evenodd" clip-rule="evenodd" d="M39.6289 18.2305H42.2606L45.0054 31.045H41.8552C41.8552 31.045 41.5469 29.5727 41.4492 29.1228H37.0809C36.9546 29.4634 36.3668 31.045 36.3668 31.045H32.7969L37.8506 19.2937C38.2008 18.462 38.8173 18.2305 39.6289 18.2305ZM39.4209 22.9183C39.4209 22.9183 38.3427 25.7675 38.0625 26.5037H40.8905C40.7506 25.863 40.1063 22.7956 40.1063 22.7956L39.8685 21.6914C39.7684 21.9757 39.6236 22.3667 39.5259 22.6303C39.4597 22.8091 39.4152 22.9293 39.4209 22.9183Z" fill="#0742A6"/>
<path fill-rule="evenodd" clip-rule="evenodd" d="M14.9548 18.2305L11.6227 26.9689L11.2586 25.1966C10.6426 23.1517 8.71066 20.9299 6.55469 19.8252L9.60669 31.0316H13.2046L18.5524 18.2305H14.9548V18.2305Z" fill="#0742A6"/>
<path fill-rule="evenodd" clip-rule="evenodd" d="M8.53003 18.2305H3.056L3 18.4894C7.27008 19.5528 10.0981 22.1162 11.26 25.1972L10.07 19.3077C9.87407 18.4892 9.272 18.2575 8.53003 18.2305Z" fill="#0742A6"/>
</svg>

<svg xmlns="http://www.w3.org/2000/svg" width="48" height="48" fill="none"><path fill="#0742A6" fill-rule="evenodd" d="M21.2 31.045h-3.403l2.128-12.815h3.402zM33.534 18.546A8.6 8.6 0 0 0 30.483 18c-3.36 0-5.726 1.745-5.74 4.24-.029 1.84 1.693 2.862 2.981 3.476 1.316.627 1.764 1.037 1.764 1.596-.014.858-1.064 1.254-2.043 1.254-1.359 0-2.087-.204-3.193-.682l-.448-.205-.476 2.877c.798.354 2.268.668 3.795.682 3.57 0 5.894-1.718 5.921-4.376.014-1.46-.895-2.577-2.856-3.49-1.19-.587-1.918-.982-1.918-1.582.014-.545.616-1.104 1.96-1.104a5.9 5.9 0 0 1 2.534.49l.307.137zM39.629 18.23h2.632l2.744 12.815h-3.15s-.308-1.472-.406-1.922h-4.368l-.714 1.922h-3.57l5.054-11.751c.35-.832.966-1.064 1.778-1.064m-.208 4.688s-1.078 2.85-1.358 3.586h2.828c-.14-.641-.785-3.708-.785-3.708l-.238-1.105c-.1.285-.244.676-.342.94zM14.955 18.23l-3.332 8.739-.364-1.772c-.616-2.045-2.548-4.267-4.704-5.372l3.052 11.207h3.598l5.347-12.801z" clip-rule="evenodd"/><path fill="#0742A6" fill-rule="evenodd" d="M8.53 18.23H3.056L3 18.49c4.27 1.063 7.098 3.626 8.26 6.707l-1.19-5.89c-.196-.818-.798-1.05-1.54-1.076" clip-rule="evenodd"/></svg>
